X: 01043
T: The FLYING WALRUS
C: Bob McQuillen '73
B: Bob's Note Book 1 #43
%R: reel
Z: 2019 John Chambers <jc:trillian.mit.edu>
M: C
L: 1/8
K: G	% and Em
dc \
| BGBd cAce | d2g2 g2fe | decd BGFG | A2D2 D2dc |
| BGBd cAce | dega bgfg | agfe dcBA | B2A2 A2 :|
|: GF \
| E^DEF GFGA | B2e2 e2ef | gfeg fedc | Beed e2GA |
| BGAB cABc | Beed e2ef | gfeg fagf | e6 :|
%%begintext align
%% For Johnny Kyte J[image of kite] [image of walrus]
%%endtext

%%sep 1 1 500

%%sep 1 1 500

